X: 40457
T: Tom Sullivan's
R: polka
M: 2/4
K: Dmixolydian
|:A2|D2 FA|cA AG|Ad d^c|d2 d>e|
fd ed|^c/B/A AB|cA GE|D2:|
D2|fd ed|^c/B/A Ad|fd e^c|d2 de|
fd ed|^c/B/A AB|cA GE|D2 D2|
f2 ed|^c/B/A Ad|fd ef|g2 a>g|
fd ed|^c/B/A A>B|cA GE|D2||

